X: 25012
T: Maid That Sold Her Barley, The
R: jig
M: 6/8
K: Cdorian
F|G2G F2G|E2C B,2B,|C2C B,G,B,|C2 C3 F|
G2G F2G|E2C B,2B,|C2C B,G,B,|C2 C3 G,|
C2C E2F|G2F E2F|G2c c2B|c2 G3 B|
c2G F2G|E2C B,CD|E2C DCB,|C2 C4||

